X:65
T:Lord Loudon's Grenadiers March ThFife.65
B:Thompson, C. & Thompson, S., 'The Compleat Tutor for the Fife', London, c.1765-1780.
S:Digitised by National Library of Scotland at: https://archive.org/details/nlsmusic
Z:vmp Roger Hare, 2019.
M:2/4
L:1/8
Q:1/4=80
K:G
|: de/f/g2 | Bd/B/ G2 | BB/G/ cc/A/ | dd/B/ !trill!G2 | de/f/ g2 | ff/g/ a2 |
fe/d/ ed/^c/ | de/^c/ d2 | de/f/ g2 | ff/g/ a2 | fe/d/ ed/^c/ | de/^c/ d2 :|
|: g>gf>f | e>ed>d | c>c B2 | G/A/B/c/d2 | G/A/B/c/d2 | B/G/ c2 A/F/ |
G2 z/ d/e/f/ | g2 z/ d/e/f/ | g2 B/G/c | cA/F/ G2 :|

